svg/Pictogram/pictograms-aem-0126-do_not_put_foot_in_this_area.svg

<?xml version="1.0" encoding="UTF-8" standalone="no"?>
<svg height="305.909" id="svg2" inkscape:output_extension="org.inkscape.output.svg.inkscape" inkscape:version="0.46" sodipodi:docname="pictograms-aem-0126-do_not_put_foot_in_this_area-2.svg" sodipodi:version="0.32" width="305.909" xmlns="http://www.w3.org/2000/svg" xmlns:cc="http://creativecommons.org/ns#" xmlns:dc="http://purl.org/dc/elements/1.1/" xmlns:inkscape="http://www.inkscape.org/namespaces/inkscape" xmlns:rdf="http://www.w3.org/1999/02/22-rdf-syntax-ns#" xmlns:sodipodi="http://sodipodi.sourceforge.net/DTD/sodipodi-0.dtd" xmlns:svg="http://www.w3.org/2000/svg">
  <metadata>
    <rdf:RDF xmlns:cc="http://web.resource.org/cc/" xmlns:dc="http://purl.org/dc/elements/1.1/" xmlns:rdf="http://www.w3.org/1999/02/22-rdf-syntax-ns#">
      <cc:Work rdf:about="">
        <dc:title></dc:title>
        <dc:description></dc:description>
        <dc:subject>
          <rdf:Bag>
            <rdf:li></rdf:li>
          </rdf:Bag>
        </dc:subject>
        <dc:publisher>
          <cc:Agent rdf:about="http://www.unece.org/trans/danger/publi/ghs/pictograms.html">
            <dc:title>Source: UNECE GHS of Classification and Labeling of Chemicals, Source: AEM Pictorial Database, Source: AEM Pictorial Database, Source: AEM Pictorial Database, Source: AEM Pictorial Database</dc:title>
          </cc:Agent>
        </dc:publisher>
        <dc:creator>
          <cc:Agent>
            <dc:title></dc:title>
          </cc:Agent>
        </dc:creator>
        <dc:rights>
          <cc:Agent>
            <dc:title></dc:title>
          </cc:Agent>
        </dc:rights>
        <dc:date></dc:date>
        <dc:format>image/svg+xml</dc:format>
        <dc:type rdf:resource="http://purl.org/dc/dcmitype/StillImage"/>
        <cc:license rdf:resource="http://en.wikipedia.org/wiki/Public_domain"/>
        <dc:language>en</dc:language>
      </cc:Work>
    </rdf:RDF>
  </metadata>
  <sodipodi:namedview bordercolor="#666666" borderopacity="1.0" gridtolerance="10.0" guidetolerance="10.0" id="base" inkscape:current-layer="svg2" inkscape:cx="152.9545" inkscape:cy="152.9545" inkscape:pageopacity="0.0" inkscape:pageshadow="2" inkscape:window-height="674" inkscape:window-width="640" inkscape:window-x="559" inkscape:window-y="191" inkscape:zoom="0.53626659" objecttolerance="10.0" pagecolor="#ffffff" showgrid="false"/>
  <defs id="defs6">
    <inkscape:perspective id="perspective38" inkscape:persp3d-origin="152.9545 : 101.96967 : 1" inkscape:vp_x="0 : 152.9545 : 1" inkscape:vp_y="0 : 1000 : 0" inkscape:vp_z="305.909 : 152.9545 : 1" sodipodi:type="inkscape:persp3d"/>
    <marker id="ArrowEnd" markerHeight="3" markerUnits="strokeWidth" markerWidth="4" orient="auto" refX="0" refY="5" viewBox="0 0 10 10">
      <path d="M 0 0 L 10 5 L 0 10 z" id="path9"/>
    </marker>
    <marker id="ArrowStart" markerHeight="3" markerUnits="strokeWidth" markerWidth="4" orient="auto" refX="10" refY="5" viewBox="0 0 10 10">
      <path d="M 10 0 L 0 5 L 10 10 z" id="path12"/>
    </marker>
  </defs>
  <g id="g2958" transform="matrix(1.3037431,0,0,1.3037443,-45.631441,-50.210698)">
    <path d="M 157.499,155.116 C 150.558,173.597 132.3,189.343 114.761,189.362 C 101.175,189.37 89.679,199.038 86.1907,212.12 L 150.515,212.085 L 172.788,200.222 C 173.167,199.995 173.616,199.874 174.089,199.874 C 175.647,199.874 176.913,201.218 176.913,202.843 L 176.882,212.156 L 217.667,212.074 L 217.655,200.186 C 217.655,196.218 219.429,191.444 219.429,191.444 C 220.89,186.948 221.729,182.03 221.729,177.022 C 221.714,169.046 219.706,161.741 216.182,155.272 L 157.499,155.116" id="path15" style="fill:#000000;fill-rule:evenodd;stroke:none"/>
    <path d="M 219.577,100.401 L 219.503,149.831 L 156.034,149.714 L 155.932,100.468 L 219.577,100.401" id="path17" style="fill:#000000;fill-rule:evenodd;stroke:none"/>
    <path d="M 88.6634,220.941 C 71.3157,203.597 61.7649,180.534 61.7649,156.003 C 61.7649,134.218 69.3157,113.597 83.1556,97.1004 L 212.472,226.421 C 196.518,239.781 175.987,247.843 153.6,247.843 C 129.073,247.843 106.011,238.292 88.6634,220.941 z M 224.015,214.878 L 94.6985,85.5584 C 111.19,71.7184 131.811,64.1674 153.6,64.1674 C 204.241,64.1674 245.436,105.362 245.44,156.003 C 245.44,178.393 237.374,198.925 224.015,214.878 z M 153.6,43.7574 C 123.616,43.7574 95.429,55.4334 74.2298,76.6364 C 53.0306,97.8354 41.3548,126.022 41.3548,156.003 C 41.3548,185.983 53.0306,214.171 74.2298,235.378 C 95.4329,256.574 123.616,268.249 153.6,268.249 C 215.491,268.249 265.847,217.898 265.847,156.003 C 265.847,94.1124 215.491,43.7574 153.6,43.7574" id="path19" style="fill:#d90000;fill-rule:evenodd;stroke:none"/>
    <path d="M 29.6204,267.288 L 2.62042,267.288" id="path21" style="fill:none;stroke:#000000;stroke-width:0.51899672"/>
    <path d="M 38.6204,276.288 L 38.6204,303.288" id="path23" style="fill:none;stroke:#000000;stroke-width:0.51899672"/>
    <path d="M 29.6204,38.6244 L 2.62042,38.6244" id="path25" style="fill:none;stroke:#000000;stroke-width:0.51899672"/>
    <path d="M 38.6204,29.6244 L 38.6204,2.62042" id="path27" style="fill:none;stroke:#000000;stroke-width:0.51899672"/>
    <path d="M 276.288,38.6244 L 303.288,38.6244" id="path29" style="fill:none;stroke:#000000;stroke-width:0.51899672"/>
    <path d="M 267.288,29.6244 L 267.288,2.62042" id="path31" style="fill:none;stroke:#000000;stroke-width:0.51899672"/>
    <path d="M 276.288,267.288 L 303.288,267.288" id="path33" style="fill:none;stroke:#000000;stroke-width:0.51899672"/>
    <path d="M 267.288,276.288 L 267.288,303.288" id="path35" style="fill:none;stroke:#000000;stroke-width:0.51899672"/>
  </g>
</svg>

<svg xmlns="http://www.w3.org/2000/svg" viewBox="0 0 305.91 305.91"><g transform="matrix(1.30374 0 0 1.30374-45.631-50.21)" fill-rule="evenodd"><path d="m157.5 155.12c-6.941 18.481-25.2 34.23-42.738 34.25-13.586.008-25.08 9.676-28.57 22.758l64.32-.035 22.273-11.863c.379-.227.828-.348 1.301-.348 1.558 0 2.824 1.344 2.824 2.969l-.031 9.313 40.785-.082-.012-11.888c0-3.968 1.774-8.742 1.774-8.742 1.461-4.496 2.3-9.414 2.3-14.422-.015-7.976-2.023-15.281-5.547-21.75l-58.683-.156"/><path d="m219.58 100.4l-.074 49.43-63.47-.117-.102-49.25 63.65-.067"/><path d="m88.66 220.94c-17.348-17.344-26.898-40.41-26.898-64.938 0-21.785 7.551-42.41 21.391-58.903l129.32 129.32c-15.954 13.36-36.485 21.422-58.872 21.422-24.527 0-47.589-9.551-64.937-26.902m135.35-6.06l-129.32-129.32c16.492-13.84 37.11-21.391 58.901-21.391 50.641 0 91.84 41.19 91.84 91.84 0 22.39-8.07 42.922-21.425 58.875m-70.41-171.12c-29.984 0-58.17 11.676-79.37 32.879-21.2 21.2-32.875 49.39-32.875 79.37 0 29.98 11.676 58.17 32.875 79.37 21.2 21.2 49.39 32.871 79.37 32.871 61.891 0 112.25-50.35 112.25-112.25 0-61.891-50.36-112.25-112.25-112.25" fill="#d90000"/></g></svg>
